_site/images/homepage/businesses.svg

<svg fill="none" height="110" viewBox="0 0 110 110" width="110" xmlns="http://www.w3.org/2000/svg" xmlns:xlink="http://www.w3.org/1999/xlink"><filter id="a" color-interpolation-filters="sRGB" filterUnits="userSpaceOnUse" height="110" width="110" x="0" y="0"><feFlood flood-opacity="0" result="BackgroundImageFix"/><feColorMatrix in="SourceAlpha" type="matrix" values="0 0 0 0 0 0 0 0 0 0 0 0 0 0 0 0 0 0 127 0"/><feOffset dy="6"/><feGaussianBlur stdDeviation="7.5"/><feColorMatrix type="matrix" values="0 0 0 0 0.164706 0 0 0 0 0.439216 0 0 0 0 0.690196 0 0 0 0.15 0"/><feBlend in2="BackgroundImageFix" mode="normal" result="effect1_dropShadow"/><feBlend in="SourceGraphic" in2="effect1_dropShadow" mode="normal" result="shape"/></filter><g filter="url(#a)"><rect fill="#f9fcff" height="80" rx="25" width="80" x="15" y="9"/></g><path d="m71.9519 35.4003c-.0022 0-.0044-.0003-.0066-.0003h-9.5625v-1.1c0-1.8196-1.4194-3.3-3.164-3.3h-8.4376c-1.7446 0-3.164 1.4804-3.164 3.3v1.1h-9.5625c-.5872 0-1.0547.5019-1.0547 1.1v24.2c0 1.8196 1.4194 3.3 3.1641 3.3h29.6718c1.7447 0 3.1641-1.4804 3.1641-3.3v-24.1768c0-.0014 0-.0029 0-.0043-.0404-.7224-.4664-1.1146-1.0481-1.1186zm-22.2253-1.1003c0-.6064.4732-1.1 1.0546-1.1h8.4376c.5814 0 1.0546.4936 1.0546 1.1v1.1h-10.5468zm20.7553 3.3-3.2753 10.2478c-.1436.45-.5457.7522-1.0003.7522h-5.9329v-1.1c0-.6076-.4721-1.1-1.0546-1.1h-8.4376c-.5825 0-1.0546.4924-1.0546 1.1v1.1h-5.9329c-.4546 0-.8567-.3022-1.0003-.7522l-3.2753-10.2478zm-12.3178 11v2.2h-6.3282v-2.2zm12.7265 12.1c0 .6064-.4732 1.1-1.0547 1.1h-29.6718c-.5815 0-1.0547-.4936-1.0547-1.1v-17.4215l1.6828 5.2651c.4312 1.3498 1.6375 2.2564 3.0015 2.2564h5.9329v1.1c0 .6076.4721 1.1 1.0546 1.1h8.4376c.5825 0 1.0546-.4924 1.0546-1.1v-1.1h5.9329c1.364 0 2.5703-.9066 3.0015-2.2564l1.6828-5.2651z" fill="#00a0b6"/></svg>

<svg width="110" height="110" viewBox="0 0 110 110" fill="none" xmlns="http://www.w3.org/2000/svg">
<g filter="url(#filter0_d)">
<rect x="15" y="9" width="80" height="80" rx="25" fill="#F9FCFF"/>
</g>
<path d="M71.9519 35.4003C71.9497 35.4003 71.9475 35.4 71.9453 35.4H62.3828V34.3C62.3828 32.4804 60.9634 31 59.2188 31H50.7812C49.0366 31 47.6172 32.4804 47.6172 34.3V35.4H38.0547C37.4675 35.4 37 35.9019 37 36.5V60.7C37 62.5196 38.4194 64 40.1641 64H69.8359C71.5806 64 73 62.5196 73 60.7V36.5232C73 36.5218 73 36.5203 73 36.5189C72.9596 35.7965 72.5336 35.4043 71.9519 35.4003ZM49.7266 34.3C49.7266 33.6936 50.1998 33.2 50.7812 33.2H59.2188C59.8002 33.2 60.2734 33.6936 60.2734 34.3V35.4H49.7266V34.3ZM70.4819 37.6L67.2066 47.8478C67.063 48.2978 66.6609 48.6 66.2063 48.6H60.2734V47.5C60.2734 46.8924 59.8013 46.4 59.2188 46.4H50.7812C50.1987 46.4 49.7266 46.8924 49.7266 47.5V48.6H43.7937C43.3391 48.6 42.937 48.2978 42.7934 47.8478L39.5181 37.6H70.4819ZM58.1641 48.6V50.8H51.8359V48.6H58.1641ZM70.8906 60.7C70.8906 61.3064 70.4174 61.8 69.8359 61.8H40.1641C39.5826 61.8 39.1094 61.3064 39.1094 60.7V43.2785L40.7922 48.5436C41.2234 49.8934 42.4297 50.8 43.7937 50.8H49.7266V51.9C49.7266 52.5076 50.1987 53 50.7812 53H59.2188C59.8013 53 60.2734 52.5076 60.2734 51.9V50.8H66.2063C67.5703 50.8 68.7766 49.8934 69.2078 48.5436L70.8906 43.2785V60.7Z" fill="#00A0B6"/>
<defs>
<filter id="filter0_d" x="0" y="0" width="110" height="110" filterUnits="userSpaceOnUse" color-interpolation-filters="sRGB">
<feFlood flood-opacity="0" result="BackgroundImageFix"/>
<feColorMatrix in="SourceAlpha" type="matrix" values="0 0 0 0 0 0 0 0 0 0 0 0 0 0 0 0 0 0 127 0"/>
<feOffset dy="6"/>
<feGaussianBlur stdDeviation="7.5"/>
<feColorMatrix type="matrix" values="0 0 0 0 0.164706 0 0 0 0 0.439216 0 0 0 0 0.690196 0 0 0 0.15 0"/>
<feBlend mode="normal" in2="BackgroundImageFix" result="effect1_dropShadow"/>
<feBlend mode="normal" in="SourceGraphic" in2="effect1_dropShadow" result="shape"/>
</filter>
</defs>
</svg>
